icons/government-line.svg

<svg xmlns="http://www.w3.org/2000/svg" viewBox="0 0 24 24">
    <g>
        <path fill="none" d="M0 0h24v24H0z"/>
        <path d="M20 6h3v2h-1v11h1v2H1v-2h1V8H1V6h3V4a1 1 0 0 1 1-1h14a1 1 0 0 1 1 1v2zm0 2H4v11h3v-7h2v7h2v-7h2v7h2v-7h2v7h3V8zM6 5v1h12V5H6z"/>
    </g>
</svg>

<svg viewBox="0 0 24 24" fill="currentColor" xmlns="http://www.w3.org/2000/svg"><path d="M20 6H23V8H22V19H23V21H1V19H2V8H1V6H4V4C4 3.44772 4.44772 3 5 3H19C19.5523 3 20 3.44772 20 4V6ZM20 8H4V19H7V12H9V19H11V12H13V19H15V12H17V19H20V8ZM6 5V6H18V5H6Z"/></svg>
